web/public/images/3p-logos/auth0.svg

<svg viewBox="0 0 48 48" fill="none" xmlns="http://www.w3.org/2000/svg">
<path d="M23.9996 47.9991C37.2541 47.9991 47.9991 37.2541 47.9991 23.9996C47.9991 10.745 37.2541 0 23.9996 0C10.745 0 0 10.745 0 23.9996C0 37.2541 10.745 47.9991 23.9996 47.9991Z" fill="black"/>
<path d="M35.3197 20.4539L28.3228 25.5368L30.9947 33.7611C35.4997 30.4897 36.9719 25.5368 35.3197 20.4539Z" fill="white"/>
<path d="M23.9995 12.1467H15.3521L12.6802 20.4539H21.3275L23.9995 12.1467Z" fill="white"/>
<path d="M17.0034 33.7611L23.9995 38.7621L30.9956 33.7611L23.9995 28.6782L17.0034 33.7611Z" fill="white"/>
<path d="M12.6803 20.4539C11.0281 25.5368 12.5021 30.4897 17.0035 33.7611L19.6755 25.5368L12.6803 20.4539Z" fill="white"/>
<path d="M35.3197 20.4539L32.6478 12.1467H23.9995L26.6724 20.4539H35.3197Z" fill="white"/>
</svg>

<svg fill="none" viewBox="0 0 48 48" xmlns="http://www.w3.org/2000/svg"><path d="M24 48c13.254 0 24-10.746 24-24C48 10.745 37.253 0 24 0 10.745 0 0 10.745 0 24c0 13.254 10.745 24 24 24z" fill="#000"/><g fill="#fff"><path d="m35.32 20.454-6.997 5.083 2.672 8.224c4.505-3.271 5.977-8.224 4.325-13.307zM24 12.147h-8.648l-2.672 8.307h8.648z"/><path d="M17.003 33.761 24 38.762l6.997-5L24 28.678z"/><path d="M12.68 20.454c-1.652 5.083-.178 10.036 4.324 13.307l2.672-8.224zm22.64 0-2.672-8.307h-8.649l2.673 8.307z"/></g></svg>
